resources/svg/pinterest.svg

<svg width="15" height="15" viewBox="0 0 15 15" fill="none" xmlns="http://www.w3.org/2000/svg">
<path d="M0 7.5C0 3.35786 3.35786 0 7.5 0C11.6421 0 15 3.35786 15 7.5C15 11.6421 11.6421 15 7.5 15C6.46585 15 5.48059 14.7907 4.58427 14.4121L6.49504 10.0447C6.97541 10.6368 7.70586 11 8.5 11C10.433 11 12 9.433 12 7.5V7C12 4.79086 10.2091 3 8 3H7C4.79086 3 3 4.79086 3 7V7.5C3 8.39609 3.33741 9.21457 3.89133 9.83346L4.63646 9.16654C4.2403 8.72391 4 8.14062 4 7.5V7C4 5.34315 5.34315 4 7 4H8C9.65685 4 11 5.34315 11 7V7.5C11 8.88071 9.88071 10 8.5 10C7.81943 10 7.21522 9.56451 7 8.91886L6.99463 8.90274L7.95815 6.70041L7.04199 6.29959L3.68991 13.9615C1.48133 12.6564 0 10.2512 0 7.5Z" fill="black"/>
</svg>

<svg viewBox="0 0 15 15" fill="none" xmlns="http://www.w3.org/2000/svg" fill="currentColor"><path d="M0 7.5a7.5 7.5 0 114.584 6.912l1.911-4.367A2.58 2.58 0 008.5 11 3.5 3.5 0 0012 7.5V7a4 4 0 00-4-4H7a4 4 0 00-4 4v.5c0 .896.337 1.715.891 2.333l.745-.666A2.489 2.489 0 014 7.5V7a3 3 0 013-3h1a3 3 0 013 3v.5A2.5 2.5 0 018.5 10 1.58 1.58 0 017 8.919l-.005-.016.963-2.203-.916-.4-3.352 7.66A7.496 7.496 0 010 7.5z" fill="currentColor"/></svg>
